src/images/baby-boy.svg

<svg width="324" height="421" viewBox="0 0 384 481" fill="none" xmlns="http://www.w3.org/2000/svg">
<path d="M320 448.936H256V336.97C256 319.303 270.327 304.98 288 304.98H320V448.936Z" fill="#23AAE6"/>
<path d="M328 480.926H264C259.582 480.926 256 477.345 256 472.928V448.936H320C328.837 448.936 336 456.097 336 464.931V472.928C336 477.345 332.418 480.926 328 480.926Z" fill="#F0915A"/>
<path d="M192 304.98C147.817 304.98 112 340.786 112 384.956V416.946H80V464.931C80 473.765 87.163 480.926 96 480.926H144C179.346 480.926 208 452.281 208 416.946V304.98H192Z" fill="#23AAE6"/>
<path d="M8 478.26H16C24.837 478.26 32 471.099 32 462.265V408.948H8C3.582 408.948 0 412.529 0 416.946V470.262C0 474.68 3.582 478.26 8 478.26V478.26Z" fill="#FAB991"/>
<path d="M144 304.98C99.817 304.98 64 340.786 64 384.956V408.948H32V464.931C32 473.765 39.163 480.926 48 480.926H96C131.346 480.926 160 452.281 160 416.946H208V448.936H272V410.272C300.25 397.929 320 369.762 320 336.97V304.98H144Z" fill="#5AD7FF"/>
<path d="M280 480.926H216C211.582 480.926 208 477.345 208 472.928V448.936H272C280.837 448.936 288 456.097 288 464.931V472.928C288 477.345 284.418 480.926 280 480.926Z" fill="#FAB991"/>
<path d="M288 336.97C305.673 336.97 320 322.648 320 304.98C320 287.313 305.673 272.99 288 272.99C270.327 272.99 256 287.313 256 304.98C256 322.648 270.327 336.97 288 336.97Z" fill="#FFD205"/>
<path d="M256 49.0592C185.307 49.0592 128 106.35 128 177.02C128 247.69 185.307 304.98 256 304.98H304C348.183 304.98 384 269.174 384 225.005V177.02C384 106.35 326.693 49.0592 256 49.0592V49.0592Z" fill="#FAB991"/>
<path d="M224 177.02V256.995C201.909 256.995 184 239.092 184 217.007C184 194.923 201.909 177.02 224 177.02Z" fill="#F0915A"/>
<path d="M284 201.012C290.627 201.012 296 195.641 296 189.016C296 182.391 290.627 177.02 284 177.02C277.373 177.02 272 182.391 272 189.016C272 195.641 277.373 201.012 284 201.012Z" fill="#463C4B"/>
<path d="M348 201.012C354.627 201.012 360 195.641 360 189.016C360 182.391 354.627 177.02 348 177.02C341.373 177.02 336 182.391 336 189.016C336 195.641 341.373 201.012 348 201.012Z" fill="#463C4B"/>
<path d="M325.333 248.998C319.442 248.998 314.666 244.223 314.666 238.334V209.01C326.448 209.01 335.999 218.558 335.999 230.336V238.334C336 244.223 331.224 248.998 325.333 248.998Z" fill="#F0915A"/>
<path d="M280 233.002H264C259.582 233.002 256 229.422 256 225.005C256 220.588 259.582 217.007 264 217.007H280C284.418 217.007 288 220.588 288 225.005C288 229.422 284.418 233.002 280 233.002Z" fill="#F0915A"/>
<path d="M368 225.005C368 229.422 371.582 233.002 376 233.002H383.601C383.862 230.372 384 227.706 384 225.007V217.007H376C371.582 217.007 368 220.588 368 225.005Z" fill="#F0915A"/>
<path d="M297.185 95.7118H288C285.791 95.7118 284 93.9213 284 91.713C284 89.5047 285.791 87.7142 288 87.7142H297.185C325.205 87.7142 348 64.9263 348 36.9149C348 21.4807 335.439 8.92353 320 8.92353C308.972 8.92353 300 17.8928 300 28.9174C300 35.5323 305.383 40.9137 312 40.9137C314.209 40.9137 316 42.7041 316 44.9124C316 47.1207 314.209 48.9112 312 48.9112C300.972 48.9112 292 39.942 292 28.9174C292 13.4831 304.561 0.925995 320 0.925995C339.851 0.925995 356 17.07 356 36.9149C356 69.3359 329.616 95.7118 297.185 95.7118Z" fill="#463C4B"/>
</svg>

<svg width="324" height="421" viewBox="0 0 384 481" fill="none" xmlns="http://www.w3.org/2000/svg"><path d="M320 448.94h-64V336.97a32 32 0 0132-31.99h32v143.96z" fill="#23AAE6"/><path d="M328 480.93h-64a8 8 0 01-8-8v-24h64a16 16 0 0116 16v8a8 8 0 01-8 8z" fill="#F0915A"/><path d="M192 304.98c-44.18 0-80 35.8-80 79.98v31.99H80v47.98a16 16 0 0016 16h48c35.35 0 64-28.65 64-63.98V304.98h-16z" fill="#23AAE6"/><path d="M8 478.26h8a16 16 0 0016-16v-53.31H8a8 8 0 00-8 8v53.31a8 8 0 008 8z" fill="#FAB991"/><path d="M144 304.98c-44.18 0-80 35.8-80 79.98v23.99H32v55.98a16 16 0 0016 16h48c35.35 0 64-28.65 64-63.98h48v31.99h64v-38.67a79.98 79.98 0 0048-73.3v-31.99H144z" fill="#5AD7FF"/><path d="M280 480.93h-64a8 8 0 01-8-8v-24h64a16 16 0 0116 16v8a8 8 0 01-8 8z" fill="#FAB991"/><path d="M288 336.97a32 32 0 10.01-63.99 32 32 0 00-.01 63.99z" fill="#FFD205"/><path d="M256 49.06c-70.7 0-128 57.29-128 127.96 0 70.67 57.3 127.96 128 127.96h48c44.18 0 80-35.8 80-79.98v-47.98c0-70.67-57.3-127.96-128-127.96z" fill="#FAB991"/><path d="M224 177.02v79.97a40 40 0 110-79.97z" fill="#F0915A"/><path d="M284 201.01a12 12 0 100-24 12 12 0 000 24zM348 201.01a12 12 0 100-24 12 12 0 000 24z" fill="#463C4B"/><path d="M325.33 249c-5.89 0-10.66-4.78-10.66-10.67v-29.32A21.33 21.33 0 01336 230.34v8c0 5.88-4.78 10.66-10.67 10.66zM280 233h-16a8 8 0 110-16h16a8 8 0 110 16zM368 225a8 8 0 008 8h7.6c.26-2.63.4-5.3.4-8v-8h-8a8 8 0 00-8 8z" fill="#F0915A"/><path d="M297.19 95.71H288a4 4 0 110-8h9.19A50.86 50.86 0 00348 36.91c0-15.43-12.56-27.99-28-27.99-11.03 0-20 8.97-20 20 0 6.61 5.38 12 12 12a4 4 0 110 8c-11.03 0-20-8.98-20-20 0-15.44 12.56-28 28-28 19.85 0 36 16.15 36 36a58.87 58.87 0 01-58.81 58.8z" fill="#463C4B"/></svg>
